X: 1
T: the Signpost Up Ahead
C: Paul Milde
R: reel
Z: 2012 John Chambers <jc:trillian.mit.edu>
S: Printed page from the SRSNH (Strathspey and Reel Society of New Hampshire)
N: 1
N: 2
M: C|
L: 1/8
K: C
G2 "A"|\
"C"cBAG "G7"F2E2 | "C"EFGE "D7"D2-D2 |\
"C"E2G2 "G7"D2G2 | "F"AGFE "G7"D2G2 |\
"C"cBAG "F7"F2"C"E2 | "C"EFGE "D7"D2-D2 |\
"C"E2G2 "Dm"F3D | "G7"B,CDB, "C"C2 !Fine!:|
"B"|: EF |\
"C"G2EG AGEG | "C"AGAB "F"c2BA |\
"C"G2GG "F"AGFE | "C"EDDE "(G7)"D2EF |\
"C"G2EG AGEG |
"F"AGAB c2BA |\
[1 "C"G2BA "G7"GFED | "G7"DCCB, "C"C2 :|\
[2 "C"G2cB "F"AGFE | "G7"DCCB, "C"C2 ||
"C"|: CD |\
"C"ECCD C2DE | "Dm"FDDE D2DC |\
"G7"B,2B,C DB,CD | "C"EDDA "G7"G2CD |\
"C"ECBC "G7"D2DE |
"Dm"FEDC |[1 D2DC |\
"G7"B,2B,C "Dm"DAGF | "C"EDCB, C2CD :|\
[2 "C"E2DC | "Dm"B,2B,C DAGE |\
"G7"FDCB, "C"C2 "^D.C. al Fine"|]
